cssgg/arrow-bottom-left.svg

<svg
  width="24"
  height="24"
  viewBox="0 0 24 24"
  fill="none"
  xmlns="http://www.w3.org/2000/svg"
>
  <path
    d="M18.2426 7.17154L16.8284 5.75732L7.75739 14.8283L7.75739 10.2427H5.75739L5.75739 18.2427H13.7574V16.2427L9.17144 16.2427L18.2426 7.17154Z"
    fill="currentColor"
  />
</svg>

<svg viewBox="0 0 24 24" xmlns="http://www.w3.org/2000/svg"><path d="M18.24 7.17l-1.42-1.42 -9.08 9.07v-4.59h-2v8h8v-2H9.15l9.07-9.08Z"/></svg>
